ui/StatusQ/src/assets/img/icons/remove-circle.svg

<svg fill="none" height="24" viewBox="0 0 24 24" width="24" xmlns="http://www.w3.org/2000/svg"><g fill="#000"><path d="m16 12.7499c.4142 0 .75-.3358.75-.75s-.3358-.75-.75-.75h-7.99997c-.41421 0-.75.3358-.75.75s.33579.75.75.75z"/><path clip-rule="evenodd" d="m22 11.9999c0 5.5228-4.4771 10-10 10-5.52282 0-9.99997-4.4772-9.99997-10 0-5.52287 4.47715-10.00002 9.99997-10.00002 5.5229 0 10 4.47715 10 10.00002zm-1.5 0c0 4.6944-3.8055 8.5-8.5 8.5-4.69439 0-8.49997-3.8056-8.49997-8.5 0-4.69444 3.80558-8.50002 8.49997-8.50002 4.6945 0 8.5 3.80558 8.5 8.50002z" fill-rule="evenodd"/></g></svg>

<svg width="24" height="24" viewBox="0 0 24 24" fill="none" xmlns="http://www.w3.org/2000/svg">
<path d="M16 12.7499C16.4142 12.7499 16.75 12.4141 16.75 11.9999C16.75 11.5857 16.4142 11.2499 16 11.2499L8.00003 11.2499C7.58582 11.2499 7.25003 11.5857 7.25003 11.9999C7.25003 12.4141 7.58582 12.7499 8.00003 12.7499L16 12.7499Z" fill="black"/>
<path fill-rule="evenodd" clip-rule="evenodd" d="M22 11.9999C22 17.5227 17.5229 21.9999 12 21.9999C6.47718 21.9999 2.00003 17.5227 2.00003 11.9999C2.00003 6.47703 6.47718 1.99988 12 1.99988C17.5229 1.99988 22 6.47703 22 11.9999ZM20.5 11.9999C20.5 16.6943 16.6945 20.4999 12 20.4999C7.30561 20.4999 3.50003 16.6943 3.50003 11.9999C3.50003 7.30546 7.30561 3.49988 12 3.49988C16.6945 3.49988 20.5 7.30546 20.5 11.9999Z" fill="black"/>
</svg>
